X:25
T:The Boys Of Ballycastle
R:hornpipe
M:4/4
L:1/8
K:Gmaj
|:ef|gfed edBd| edeg B2 BA|G2 GA BABd|e2 A2 A2 ga|
bagf gfed|edeg B2 BA|G2 GA BcBA|G2 E2 E2 :|
|:gf |e2 B2 B2 gf|e2 B2 B2 gf|e2 ef gfga|b2 e2 e2 ga|
bagf gfed|edeg B2 BA|G2 GA BcBA|G2 E2 E2:|

